blockchains/ethereum/assets/0x75231F58b43240C9718Dd58B4967c5114342a86c/logo.svg

<svg fill="none" height="250" viewBox="0 0 250 250" width="250" xmlns="http://www.w3.org/2000/svg" xmlns:xlink="http://www.w3.org/1999/xlink"><clipPath id="a"><path d="m0 0h250v250h-250z"/></clipPath><g clip-path="url(#a)"><path d="m125 113.208c31.261 0 56.604-25.3428 56.604-56.6042s-25.343-56.6038-56.604-56.6038c-31.2614 0-56.6038 25.3424-56.6038 56.6038s25.3424 56.6042 56.6038 56.6042z" fill="#88bdf3"/><path d="m125 249.997c31.261 0 56.604-25.343 56.604-56.604 0-31.262-25.343-56.604-56.604-56.604-31.2614 0-56.6038 25.342-56.6038 56.604 0 31.261 25.3424 56.604 56.6038 56.604z" fill="#3075ee"/><path d="m193.396 181.606c31.262 0 56.604-25.342 56.604-56.604 0-31.2612-25.342-56.6036-56.604-56.6036-31.261 0-56.604 25.3424-56.604 56.6036 0 31.262 25.343 56.604 56.604 56.604z" fill="#5795f1"/><path d="m56.6038 181.606c31.2614 0 56.6042-25.342 56.6042-56.604 0-31.2612-25.3428-56.6036-56.6042-56.6036s-56.6038 25.3424-56.6038 56.6036c0 31.262 25.3424 56.604 56.6038 56.604z" fill="#205fec"/><path d="m111.674 111.674c-10.089-2.453-19.3089-7.634-26.6509-14.976-7.3419-7.342-12.523-16.562-14.9762-26.6511 10.0713 2.4905 19.2713 7.684 26.6073 15.02 7.3358 7.336 12.5298 16.5361 15.0198 26.6071z" fill="#134bef"/><path d="m69.9294 180.073c2.4533-10.089 7.6343-19.309 14.9763-26.651 7.3419-7.342 16.5623-12.523 26.6513-14.977-2.491 10.072-7.684 19.272-15.0203 26.608-7.336 7.336-16.536 12.529-26.6073 15.02z" fill="#0932e8"/><path d="m138.326 138.328c10.089 2.453 19.309 7.634 26.651 14.976s12.523 16.562 14.976 26.651c-10.071-2.49-19.271-7.684-26.607-15.02s-12.53-16.536-15.02-26.607z" fill="#164bea"/><path d="m180.071 69.9297c-2.454 10.0891-7.635 19.3091-14.977 26.651-7.342 7.3423-16.562 12.5233-26.651 14.9763 2.491-10.071 7.684-19.2713 15.02-26.6073s16.536-12.5295 26.608-15.02z" fill="#3170f1"/></g></svg>

<svg width="250" height="250" viewBox="0 0 250 250" fill="none" xmlns="http://www.w3.org/2000/svg">
<g clip-path="url(#clip0_46_11459)">
<path d="M125 113.208C156.261 113.208 181.604 87.8652 181.604 56.6038C181.604 25.3424 156.261 0 125 0C93.7386 0 68.3962 25.3424 68.3962 56.6038C68.3962 87.8652 93.7386 113.208 125 113.208Z" fill="#88BDF3"/>
<path d="M125 249.997C156.261 249.997 181.604 224.654 181.604 193.393C181.604 162.131 156.261 136.789 125 136.789C93.7386 136.789 68.3962 162.131 68.3962 193.393C68.3962 224.654 93.7386 249.997 125 249.997Z" fill="#3075EE"/>
<path d="M193.396 181.606C224.658 181.606 250 156.264 250 125.002C250 93.7408 224.658 68.3984 193.396 68.3984C162.135 68.3984 136.792 93.7408 136.792 125.002C136.792 156.264 162.135 181.606 193.396 181.606Z" fill="#5795F1"/>
<path d="M56.6038 181.606C87.8652 181.606 113.208 156.264 113.208 125.002C113.208 93.7408 87.8652 68.3984 56.6038 68.3984C25.3424 68.3984 0 93.7408 0 125.002C0 156.264 25.3424 181.606 56.6038 181.606Z" fill="#205FEC"/>
<path d="M111.674 111.674C101.585 109.221 92.3651 104.04 85.0231 96.698C77.6812 89.356 72.5001 80.136 70.0469 70.0469C80.1182 72.5374 89.3182 77.7309 96.6542 85.0669C103.99 92.4029 109.184 101.603 111.674 111.674Z" fill="#134BEF"/>
<path d="M69.9294 180.073C72.3827 169.984 77.5637 160.764 84.9057 153.422C92.2476 146.08 101.468 140.899 111.557 138.445C109.066 148.517 103.873 157.717 96.5367 165.053C89.2007 172.389 80.0007 177.582 69.9294 180.073Z" fill="#0932E8"/>
<path d="M138.326 138.328C148.415 140.781 157.635 145.962 164.977 153.304C172.319 160.646 177.5 169.866 179.953 179.955C169.882 177.465 160.682 172.271 153.346 164.935C146.01 157.599 140.816 148.399 138.326 138.328Z" fill="#164BEA"/>
<path d="M180.071 69.9297C177.617 80.0188 172.436 89.2388 165.094 96.5807C157.752 103.923 148.532 109.104 138.443 111.557C140.934 101.486 146.127 92.2857 153.463 84.9497C160.799 77.6137 169.999 72.4202 180.071 69.9297Z" fill="#3170F1"/>
</g>
<defs>
<clipPath id="clip0_46_11459">
<rect width="250" height="250" fill="white"/>
</clipPath>
</defs>
</svg>
